svgs/solid/chess-clock.svg

<svg xmlns="http://www.w3.org/2000/svg" viewBox="0 0 640 512"><!--! Font Awesome Pro 6.1.1 by @fontawesome - https://fontawesome.com License - https://fontawesome.com/license (Commercial License) Copyright 2022 Fonticons, Inc. --><path d="M576 128h-32l.0001-16c0-8.875-7.125-16-16-16h-128C391.3 96 384 103.1 384 112V128H200.3L200.2 80H232C245.3 80 256 69.25 256 56S245.3 32 232 32h-112C106.8 32 96 42.75 96 56S106.8 80 120 80h32.17L152.3 128H64C28.65 128 0 156.7 0 192v224c0 35.35 28.65 64 64 64h512c35.35 0 64-28.65 64-64V192C640 156.7 611.3 128 576 128zM176.5 416c-61.87 0-112.1-50.13-112.1-112S114.5 192 176.4 192c61.88 .125 112 50.25 112 112.1C288.4 365.9 238.1 416 176.5 416zM464.5 416c-61.88 0-112.1-50.13-112.1-112s50.13-112 112-112c61.88 .125 112 50.25 112 112.1C576.4 365.9 526.1 416 464.5 416zM176 224C167.2 224 160 231.2 160 240v64C160 312.8 167.2 320 176 320S192 312.8 192 304v-64C192 231.2 184.8 224 176 224zM509.3 242.8c-4.094 0-8.188 1.562-11.31 4.688l-45.25 45.25C449.6 295.8 448 299.9 448 304c0 9.139 7.473 16 16 16c4.094 0 8.188-1.562 11.31-4.688l45.25-45.25c3.125-3.125 4.688-7.219 4.688-11.31C525.3 249.6 517.8 242.8 509.3 242.8z"/></svg>

<svg xmlns="http://www.w3.org/2000/svg" viewBox="0 0 640 512"><!--! Font Awesome Pro 6.5.1 by @fontawesome - https://fontawesome.com License - https://fontawesome.com/license (Commercial License) Copyright 2023 Fonticons, Inc. --><path d="M256 56c0-13.3-10.7-24-24-24H120c-13.3 0-24 10.7-24 24s10.7 24 24 24h32v48H64c-35.3 0-64 28.7-64 64V416c0 35.3 28.7 64 64 64H576c35.3 0 64-28.7 64-64V192c0-35.3-28.7-64-64-64H544V112c0-8.8-7.2-16-16-16H400c-8.8 0-16 7.2-16 16v16H200V80h32c13.3 0 24-10.7 24-24zM576 304a112 112 0 1 1 -224 0 112 112 0 1 1 224 0zm-52.7-59.3c-6.2-6.2-16.4-6.2-22.6 0l-48 48c-6.2 6.2-6.2 16.4 0 22.6s16.4 6.2 22.6 0l48-48c6.2-6.2 6.2-16.4 0-22.6zM176 192a112 112 0 1 1 0 224 112 112 0 1 1 0-224zm-16 48v64c0 8.8 7.2 16 16 16s16-7.2 16-16V240c0-8.8-7.2-16-16-16s-16 7.2-16 16z"/></svg>
